packages/foundations/assets/icons/functional/images/buildings/market_14.svg

<svg width="14" height="14" viewBox="0 0 14 14" fill="none" xmlns="http://www.w3.org/2000/svg">
<g clip-path="url(#clip0_184_210)">
<path fill-rule="evenodd" clip-rule="evenodd" d="M2.10054 12.6C1.91489 12.6 1.73684 12.5262 1.60557 12.395C1.47429 12.2637 1.40054 12.0856 1.40054 11.9C1.40054 11.7143 1.47429 11.5363 1.60557 11.405C1.73684 11.2737 1.91489 11.2 2.10054 11.2V6.71699C1.80369 6.43332 1.58942 6.07439 1.48058 5.67848C1.37174 5.28257 1.37242 4.86455 1.48254 4.46899L1.98954 2.46199C2.06496 2.15884 2.23961 1.88962 2.48569 1.69718C2.73177 1.50474 3.03515 1.40012 3.34754 1.39999H10.6525C11.2585 1.39999 11.8445 1.80499 12.0115 2.46199L12.5265 4.46899C12.5765 4.65899 12.6005 4.86199 12.6005 5.07499C12.6005 5.71999 12.3325 6.30199 11.9005 6.71599V11.2C12.0862 11.2 12.2642 11.2737 12.3955 11.405C12.5268 11.5363 12.6005 11.7143 12.6005 11.9C12.6005 12.0856 12.5268 12.2637 12.3955 12.395C12.2642 12.5262 12.0862 12.6 11.9005 12.6H2.10054ZM10.5005 9.79999H3.50054V11.2H10.5005V9.79999ZM9.21654 7.05999C8.87795 7.24935 8.49648 7.34877 8.10854 7.34877C7.7206 7.34877 7.33913 7.24935 7.00054 7.05999C6.66258 7.25104 6.28077 7.35098 5.89254 7.34999C5.50392 7.35161 5.12162 7.25164 4.78354 7.05999C4.39274 7.27773 3.94668 7.37612 3.50054 7.34299V8.39999H10.5005V7.34999C10.0175 7.37299 9.59054 7.27599 9.21654 7.05999ZM10.6525 2.79999H3.34754L2.82754 4.90699C2.81254 4.96999 2.80054 5.00899 2.80054 5.07499C2.80054 5.55799 3.19254 5.94999 3.67554 5.94999C4.02754 5.94999 4.39654 5.70499 4.78354 5.21499C5.18654 5.70499 5.55554 5.94999 5.89254 5.94999C6.22854 5.94999 6.59754 5.70499 7.00054 5.21499C7.41754 5.70499 7.78654 5.94999 8.10854 5.94999C8.43054 5.94999 8.79954 5.70499 9.21554 5.21499C9.62454 5.70499 9.99354 5.94999 10.3255 5.94999C10.5576 5.94999 10.7802 5.85781 10.9443 5.69371C11.1084 5.52962 11.2005 5.30706 11.2005 5.07499C11.2005 5.00199 11.2005 4.97499 11.1845 4.90699L10.6525 2.79999Z" fill="#1A1C1F"/>
</g>
<defs>
<clipPath id="clip0_184_210">
<rect width="14" height="14" fill="white"/>
</clipPath>
</defs>
</svg>

<svg xmlns="http://www.w3.org/2000/svg" width="14" height="14" fill="none"><g clip-path="url(#a)"><path fill="#1A1C1F" fill-rule="evenodd" d="M2.1 12.6a.7.7 0 0 1 0-1.4V6.717a2.27 2.27 0 0 1-.617-2.248l.507-2.007A1.4 1.4 0 0 1 3.348 1.4h7.304c.607 0 1.193.405 1.36 1.062l.515 2.007q.075.286.074.606c0 .645-.269 1.227-.7 1.641V11.2a.7.7 0 1 1 0 1.4zm8.4-2.8h-7v1.4h7zM9.218 7.06A2.27 2.27 0 0 1 7 7.06a2.24 2.24 0 0 1-1.108.29 2.23 2.23 0 0 1-1.11-.29c-.39.218-.836.316-1.282.283V8.4h7V7.35q-.724.034-1.284-.29m1.435-4.26H3.348l-.52 2.107c-.015.063-.027.102-.027.168 0 .483.392.875.875.875q.527 0 1.108-.735.604.735 1.109.735.504 0 1.108-.735.625.735 1.108.735.482 0 1.107-.735.613.735 1.11.735a.875.875 0 0 0 .874-.875c0-.073 0-.1-.015-.168z" clip-rule="evenodd"/></g><defs><clipPath id="a"><path fill="#fff" d="M0 0h14v14H0z"/></clipPath></defs></svg>
